mono-glyphs/onedrive-w.svg

<svg xmlns="http://www.w3.org/2000/svg" width="1024" height="1024" fill="none" viewBox="0 0 1024 1024">
  <path fill="#fff" d="M816 840H256c-35.333 0-68.5-6.75-99.5-20.25s-58.083-31.833-81.25-55-41.5-50.25-55-81.25S0 619.333 0 584c0-27.333 4.417-54 13.25-80S34.333 454.167 50 432.5c15.667-21.667 34.5-40.583 56.5-56.75s46.333-28.25 73-36.25c3.667-1 8.5-2.167 14.5-3.5 6-1.333 12.25-2.583 18.75-3.75a415.804 415.804 0 0 1 19.25-3c6.333-.833 11.833-1.25 16.5-1.25h4.5c14.667-22.333 31.833-42.417 51.5-60.25s41-32.917 64-45.25c23-12.333 47.333-21.833 73-28.5 25.667-6.667 51.833-10 78.5-10 36.333 0 71.25 5.917 104.75 17.75s64 28.333 91.5 49.5 51.083 46.5 70.75 76 34 61.917 43 97.25c27.333 1.667 52.75 8.25 76.25 19.75s44 26.667 61.5 45.5S999 530.167 1009 554.5s15 50.167 15 77.5c0 28.667-5.5 55.583-16.5 80.75s-25.917 47.167-44.75 66-40.917 33.75-66.25 44.75S844.333 840 816 840ZM103 699.5 526 521l-163.5-98c-16.667-9.667-34.167-17.25-52.5-22.75S272.833 392 253.5 392c-26 0-50.5 5.167-73.5 15.5s-43.083 24.25-60.25 41.75S89 487.167 79 510.5 64 558.333 64 584c0 20.667 3.333 41.083 10 61.25s16.333 38.25 29 54.25ZM256 776h560c16 0 31.333-2.5 46-7.5 14.667-5 28.333-12.333 41-22L594.5 562 155 747c15 9.333 31.083 16.5 48.25 21.5S238 776 256 776Zm343.5-285.5 116.5-49c15.333-6.333 31.333-11.333 48-15-8.333-26.333-20.5-50.5-36.5-72.5s-34.75-40.833-56.25-56.5c-21.5-15.667-45.167-27.833-71-36.5-25.833-8.667-52.583-13-80.25-13-18.667 0-37.083 2-55.25 6s-35.583 9.75-52.25 17.25-32.333 16.917-47 28.25c-14.667 11.333-28 24.167-40 38.5 12.667 3.333 24.75 7.583 36.25 12.75a310.93 310.93 0 0 1 33.75 17.75l204 122Zm68 40.5 277 166c5.333-10 9.25-20.5 11.75-31.5S960 643.333 960 632c0-22-4.167-41.917-12.5-59.75s-19.583-33.083-33.75-45.75C899.583 513.833 883 504.083 864 497.25c-19-6.833-39-10.25-60-10.25-12 0-23.833 1.417-35.5 4.25A284.507 284.507 0 0 0 734 502a492.228 492.228 0 0 0-33.5 14.25c-11 5.167-22 10.083-33 14.75Z"/>
</svg>

<svg width="1024" height="1024" viewBox="0 0 1024 1024" fill="none" xmlns="http://www.w3.org/2000/svg">
<mask id="mask0_12_162" style="mask-type:luminance" maskUnits="userSpaceOnUse" x="0" y="184" width="1024" height="656">
<path d="M1024 184H0V840H1024V184Z" fill="white"/>
</mask>
<g mask="url(#mask0_12_162)">
<path d="M816 840H256C220.667 840 187.5 833.25 156.5 819.75C125.5 806.25 98.4167 787.917 75.25 764.75C52.0833 741.583 33.75 714.5 20.25 683.5C6.75 652.5 0 619.333 0 584C0 556.667 4.41667 530 13.25 504C22.0833 478 34.3333 454.167 50 432.5C65.6667 410.833 84.5 391.917 106.5 375.75C128.5 359.583 152.833 347.5 179.5 339.5C183.167 338.5 188 337.333 194 336C200 334.667 206.25 333.417 212.75 332.25C219.25 331.083 225.667 330.083 232 329.25C238.333 328.417 243.833 328 248.5 328H253C267.667 305.667 284.833 285.583 304.5 267.75C324.167 249.917 345.5 234.833 368.5 222.5C391.5 210.167 415.833 200.667 441.5 194C467.167 187.333 493.333 184 520 184C556.333 184 591.25 189.917 624.75 201.75C658.25 213.583 688.75 230.083 716.25 251.25C743.75 272.417 767.333 297.75 787 327.25C806.667 356.75 821 389.167 830 424.5C857.333 426.167 882.75 432.75 906.25 444.25C929.75 455.75 950.25 470.917 967.75 489.75C985.25 508.583 999 530.167 1009 554.5C1019 578.833 1024 604.667 1024 632C1024 660.667 1018.5 687.583 1007.5 712.75C996.5 737.917 981.583 759.917 962.75 778.75C943.917 797.583 921.833 812.5 896.5 823.5C871.167 834.5 844.333 840 816 840ZM103 699.5L526 521L362.5 423C345.833 413.333 328.333 405.75 310 400.25C291.667 394.75 272.833 392 253.5 392C227.5 392 203 397.167 180 407.5C157 417.833 136.917 431.75 119.75 449.25C102.583 466.75 89 487.167 79 510.5C69 533.833 64 558.333 64 584C64 604.667 67.3333 625.083 74 645.25C80.6667 665.417 90.3333 683.5 103 699.5ZM256 776H816C832 776 847.333 773.5 862 768.5C876.667 763.5 890.333 756.167 903 746.5L594.5 562L155 747C170 756.333 186.083 763.5 203.25 768.5C220.417 773.5 238 776 256 776ZM599.5 490.5L716 441.5C731.333 435.167 747.333 430.167 764 426.5C755.667 400.167 743.5 376 727.5 354C711.5 332 692.75 313.167 671.25 297.5C649.75 281.833 626.083 269.667 600.25 261C574.417 252.333 547.667 248 520 248C501.333 248 482.917 250 464.75 254C446.583 258 429.167 263.75 412.5 271.25C395.833 278.75 380.167 288.167 365.5 299.5C350.833 310.833 337.5 323.667 325.5 338C338.167 341.333 350.25 345.583 361.75 350.75C373.25 355.917 384.5 361.833 395.5 368.5L599.5 490.5ZM667.5 531L944.5 697C949.833 687 953.75 676.5 956.25 665.5C958.75 654.5 960 643.333 960 632C960 610 955.833 590.083 947.5 572.25C939.167 554.417 927.917 539.167 913.75 526.5C899.583 513.833 883 504.083 864 497.25C845 490.417 825 487 804 487C792 487 780.167 488.417 768.5 491.25C756.833 494.083 745.333 497.667 734 502C722.667 506.333 711.5 511.083 700.5 516.25C689.5 521.417 678.5 526.333 667.5 531Z" fill="white"/>
</g>
</svg>
